icons/git-pull-request-closed-16.svg

<svg width="16" height="16" viewBox="0 0 16 16" fill="none" xmlns="http://www.w3.org/2000/svg">
<path fill-rule="evenodd" clip-rule="evenodd" d="M10.7197 1.22748C11.0126 0.934589 11.4874 0.934589 11.7803 1.22748L12.75 2.19715L13.7197 1.22748C14.0126 0.934589 14.4874 0.934589 14.7803 1.22748C15.0732 1.52038 15.0732 1.99525 14.7803 2.28814L13.8107 3.25781L14.7803 4.22748C15.0732 4.52037 15.0732 4.99525 14.7803 5.28814C14.4874 5.58104 14.0126 5.58104 13.7197 5.28814L12.75 4.31847L11.7803 5.28814C11.4874 5.58104 11.0126 5.58104 10.7197 5.28814C10.4268 4.99525 10.4268 4.52037 10.7197 4.22748L11.6893 3.25781L10.7197 2.28814C10.4268 1.99525 10.4268 1.52038 10.7197 1.22748Z" fill="black"/>
<path fill-rule="evenodd" clip-rule="evenodd" d="M12.75 6.5C12.3358 6.5 12 6.83579 12 7.25V10.628C11.1261 10.9369 10.5 11.7703 10.5 12.75C10.5 13.9926 11.5074 15 12.75 15C13.9926 15 15 13.9926 15 12.75C15 11.7703 14.3739 10.9369 13.5 10.628V7.25C13.5 6.83579 13.1642 6.5 12.75 6.5V6.5ZM12.75 12C12.3358 12 12 12.3358 12 12.75C12 13.1642 12.3358 13.5 12.75 13.5C13.1642 13.5 13.5 13.1642 13.5 12.75C13.5 12.3358 13.1642 12 12.75 12Z" fill="black"/>
<path fill-rule="evenodd" clip-rule="evenodd" d="M2.5 3.25C2.5 2.83579 2.83579 2.5 3.25 2.5C3.66421 2.5 4 2.83579 4 3.25C4 3.66421 3.66421 4 3.25 4C2.83579 4 2.5 3.66421 2.5 3.25ZM3.25 1C2.00736 1 1 2.00736 1 3.25C1 4.22966 1.62611 5.06309 2.5 5.37197V10.628C1.62611 10.9369 1 11.7703 1 12.75C1 13.9926 2.00736 15 3.25 15C4.49264 15 5.5 13.9926 5.5 12.75C5.5 11.7703 4.87389 10.9369 4 10.628V5.37197C4.87389 5.06309 5.5 4.22966 5.5 3.25C5.5 2.00736 4.49264 1 3.25 1ZM3.25 12C2.83579 12 2.5 12.3358 2.5 12.75C2.5 13.1642 2.83579 13.5 3.25 13.5C3.66421 13.5 4 13.1642 4 12.75C4 12.3358 3.66421 12 3.25 12Z" fill="black"/>
</svg>

<svg xmlns="http://www.w3.org/2000/svg" width="16" height="16" viewBox="0 0 16 16"><path fill-rule="evenodd" d="M10.72 1.227a.75.75 0 011.06 0l.97.97.97-.97a.75.75 0 111.06 1.061l-.97.97.97.97a.75.75 0 01-1.06 1.06l-.97-.97-.97.97a.75.75 0 11-1.06-1.06l.97-.97-.97-.97a.75.75 0 010-1.06zM12.75 6.5a.75.75 0 00-.75.75v3.378a2.251 2.251 0 101.5 0V7.25a.75.75 0 00-.75-.75zm0 5.5a.75.75 0 100 1.5.75.75 0 000-1.5zM2.5 3.25a.75.75 0 111.5 0 .75.75 0 01-1.5 0zM3.25 1a2.25 2.25 0 00-.75 4.372v5.256a2.251 2.251 0 101.5 0V5.372A2.25 2.25 0 003.25 1zm0 11a.75.75 0 100 1.5.75.75 0 000-1.5z"/></svg>
